images/about/about-bttv.svg

<svg height="150" viewBox="0 0 250 150" width="250" xmlns="http://www.w3.org/2000/svg"><g fill="#7509b7" transform="translate(50)"><path d="m74.997543.075c-41.3799237 0-74.922543 33.542619-74.922543 74.922543 0 41.379922 33.5426193 74.927464 74.922543 74.927464 41.379924 0 74.927457-33.547542 74.927457-74.927464 0-41.379921-33.547537-74.922543-74.927457-74.922543zm-.034398 9.23817c36.322613 0 65.767909 29.445297 65.767909 65.7679095 0 36.3226155-29.445293 65.7679075-65.767909 65.7679075-36.3226146 0-65.7679095-29.445292-65.7679095-65.7679075s29.4452949-65.7679095 65.7679095-65.7679095z"/><path d="m37.6566626 49.3861905v51.0114055h20.7563989c9.4337625 0 16.68276-5.889985 16.68276-15.21841 0-8.2274265-6.4224945-11.3658975-6.4224945-11.3658975s4.9286625-3.1475775 4.9286625-10.1472465c0-8.130585-6.41904-14.2798515-15.886704-14.2798515zm11.4789184 9.970344h6.1325715c4.3586235 0 6.2603355 2.240445 6.2603355 5.007285 0 3.0037965-2.153307 4.8991785-5.970414 4.8991785h-6.422493zm0 20.127417h6.1325715c4.3586235 0 6.2603355 2.2404465 6.2603355 5.007285 0 3.0037965-2.153307 4.8991785-5.970414 4.8991785h-6.422493z"/><path d="m90.4911345 100.238336v-39.154118h-11.478918v-11.793408h35.6947175v11.793408h-11.950655v39.154118z"/></g></svg>

<?xml version="1.0" encoding="UTF-8"?>
<svg width="250px" height="150px" viewBox="0 0 250 150" version="1.1" xmlns="http://www.w3.org/2000/svg" xmlns:xlink="http://www.w3.org/1999/xlink">
    <title>about-BT</title>
    <g id="about-BT" stroke="none" stroke-width="1" fill="none" fill-rule="evenodd">
        <g id="BT_2019" transform="translate(50.000000, 0.000000)" fill="#7509B7" fill-rule="nonzero">
            <path d="M74.997543,0.075 C33.6176193,0.075 0.075,33.617619 0.075,74.997543 C0.075,116.377465 33.6176193,149.925007 74.997543,149.925007 C116.377467,149.925007 149.925,116.377465 149.925,74.997543 C149.925,33.617622 116.377463,0.075 74.997543,0.075 Z M74.963145,9.31317 C111.285758,9.31317 140.731054,38.758467 140.731054,75.0810795 C140.731054,111.403695 111.285761,140.848987 74.963145,140.848987 C38.6405304,140.848987 9.1952355,111.403695 9.1952355,75.0810795 C9.1952355,38.758464 38.6405304,9.31317 74.963145,9.31317 Z" id="path3008"></path>
            <path d="M37.6566626,49.3861905 L37.6566626,100.397596 L58.4130615,100.397596 C67.846824,100.397596 75.0958215,94.507611 75.0958215,85.179186 C75.0958215,76.9517595 68.673327,73.8132885 68.673327,73.8132885 C68.673327,73.8132885 73.6019895,70.665711 73.6019895,63.666042 C73.6019895,55.535457 67.1829495,49.3861905 57.7152855,49.3861905 L37.6566626,49.3861905 Z M49.135581,59.3565345 L55.2681525,59.3565345 C59.626776,59.3565345 61.528488,61.5969795 61.528488,64.3638195 C61.528488,67.367616 59.375181,69.262998 55.558074,69.262998 L49.135581,69.262998 L49.135581,59.3565345 L49.135581,59.3565345 Z M49.135581,79.4839515 L55.2681525,79.4839515 C59.626776,79.4839515 61.528488,81.724398 61.528488,84.4912365 C61.528488,87.495033 59.375181,89.390415 55.558074,89.390415 L49.135581,89.390415 L49.135581,79.4839515 L49.135581,79.4839515 Z" id="path2998"></path>
            <polygon id="path3000" points="90.4911345 100.238336 90.4911345 61.084218 79.0122165 61.084218 79.0122165 49.29081 114.706934 49.29081 114.706934 61.084218 102.756279 61.084218 102.756279 100.238336"></polygon>
        </g>
    </g>
</svg>
